!!!!SEGMENT: pl-kk--kk-i-2--045-005_certon-pierre--missa-ad-imitationem-moduli-le-temps-qui-court-agnus-dei.krn
!!!cenid: 16xx:1673
!!!COM: Certon, Pierre
!!!COM-rismid: pe30006023
!!!CDT: ~1510-1572/02/23
!!!CNT: French
!!!OPR: Missa Ad imitationem moduli [Le temps qui court]
!!!OTL: Agnus Dei
!!!OMV: 005
!!!PDT:
!!!AGN: Sacred; Mass
!!!SMS-siglum: PL-Kk
!!!SMS-shelfmark: Kk.I.2
!!!SMS-shelfwork: 045-005 M
!!!NIFC-rismid: 300258063
!!!URL-scan: http://repozytorium.nifc.pl/skany/pl-kk-nut--i-2
!!!ONB-nifc: Części mszy: Kyrie, Gloria, Credo, Sanctus, Agnus Dei; skany: C: 0073; A: 0176; T: 0276; B: 0377;
!!!key: d:dor
**kern	**text	**kern	**text	**kern	**text	**kern	**text	**kern	**text
*part5	*part5	*part4	*part4	*part3	*part3	*part2	*part2	*part1	*part1
*staff5	*staff5	*staff4	*staff4	*staff3	*staff3	*staff2	*staff2	*staff1	*staff1
*I"BASVS I	*	*I"BASVS II	*	*I"TENOR	*	*I"ALTVS	*	*I"DISCANTVS	*
*I'B I	*	*I'B II	*	*I'T	*	*I'A	*	*I'D	*
*ICvox	*	*ICvox	*	*ICvox	*	*ICvox	*	*ICvox	*
*Ibass	*	*	*	*Itenor	*	*Ialto	*	*Isoprn	*
*clefF4	*	*clefF4	*	*clefC4	*	*clefC4	*	*clefC4	*
*d:dor	*	*d:dor	*	*d:dor	*	*d:dor	*	*d:dor	*
*k[]	*	*k[]	*	*k[]	*	*k[]	*	*k[]	*
*M2/1	*	*M2/1	*	*M2/1	*	*M2/1	*	*M2/1	*
*met(c|)	*	*met(c|)	*	*met(c|)	*	*met(c|)	*	*met(c|)	*
=1	=1	=1	=1	=1	=1	=1	=1	=1	=1
0D	A-	0ryy	.	0A	A-	0D	A-	0d	A-
=2	=2	=2	=2	=2	=2	=2	=2	=2	=2
1D	-gnus	0ryy	.	1A	-gnus	1.F	-gnus	1d	-gnus
!	!	!	!	!LO:TX:t=P:problem:kreska pseudotaktowa	!	!	!	!	!
1BBn	De-	.	.	1D	De-	.	.	1d	De-
.	.	.	.	.	.	2G/	De-	.	.
=3	=3	=3	=3	=3	=3	=3	=3	=3	=3
!LO:TX:t=P:problem:kreska pseudotaktowa	!	!	!	!	!	!	!	!	!
!LO:TX:a:t=2	!	!	!	!	!	!LO:TX:a:t=6	!	!LO:TX:t=P:problem:kreska pseudotaktowa	!
0AA	-i	0ryy	.	2.F/	-i	00.A	-i	1c	-i
.	.	.	.	4G/	.	.	.	.	.
!	!	!	!	!LO:TX:t=P:problem:kreska pseudotaktowa	!	!	!	!	!
.	.	.	.	1E	.	.	.	2r	.
*	*	*	*	*	*ij	*	*	*	*ij
.	.	.	.	.	.	.	.	2c\	A-
=4	=4	=4	=4	=4	=4	=4	=4	=4	=4
2r	.	0ryy	.	1D	A-	.	.	1.f	.
!LO:TX:t=P:problem:kreska pseudotaktowa	!	!	!	!	!	!	!	!	!
2D/	A-	.	.	.	.	.	.	.	.
1.F	-gnus	.	.	1D	-gnus	.	.	.	.
!	!	!	!	!	!	!	!	!LO:TX:t=P:problem:kreska pseudotaktowa	!
.	.	.	.	.	.	.	.	2e\	-gnus
=5	=5	=5	=5	=5	=5	=5	=5	=5	=5
!	!	!	!	!	!	!LO:TX:t=P:problem:kreska pseudotaktowa	!	!	!
.	.	0ryy	.	1.F	De-	.	.	2d\	De-
2E\	De-	.	.	.	.	.	.	2c\	.
2D/	-i	.	.	.	.	.	.	2d\	.
!	!	!	!	!LO:TX:t=P:problem:kreska pseudotaktowa	!	!	!	!	!
2C/	.	.	.	2E/	.	.	.	2e\	.
=6	=6	=6	=6	=6	=6	=6	=6	=6	=6
!	!	!	!	!	!	!	!	!LO:SIC:v:t=custos e	!
1D	.	0ryy	.	2D/	-i	0r	.	1f	.
*	*	*	*	*	*Xij	*	*	*	*
.	.	.	.	2A/	A-	.	.	.	.
!	!	!	!	!	!	!	!	!LO:LB:g=original	!
!LO:TX:t=P:problem:kreska pseudotaktowa	!	!	!	!	!	!	!	!	!
1AA	.	.	.	1c	-gnus	.	.	00e	-i
*	*	*	*	*	*	*	*ij	*	*Xij
=7	=7	=7	=7	=7	=7	=7	=7	=7	=7
2r	.	0ryy	.	2A/	.	1A	A-	.	.
!	!	!	!	!LO:TX:t=P:problem:kreska pseudotaktowa	!	!	!	!	!
2.AA/	A-	.	.	2.c\	.	.	.	.	.
.	.	.	.	.	.	1c	-gnus	.	.
4BB/	.	.	.	4B\	.	.	.	.	.
4C/	.	.	.	1A	De-	.	.	.	.
!LO:TX:t=P:problem:kreska pseudotaktowa	!	!	!	!	!	!	!	!	!
4D/	.	.	.	.	.	.	.	.	.
=8	=8	=8	=8	=8	=8	=8	=8	=8	=8
!	!	!	!	!	!	!LO:TX:t=P:problem:kreska pseudotaktowa	!	!	!
4E\	.	0ryy	.	.	.	1B	De-	.	.
4F\	.	.	.	.	.	.	.	.	.
!	!	!	!	!LO:TX:t=P:problem:kreska pseudotaktowa	!	!	!	!	!
4G\	.	.	.	2G/	.	.	.	.	.
!LO:TX:t=P:problem:kreska pseudotaktowa	!	!	!	!	!	!	!	!	!
4E\	.	.	.	.	.	.	.	.	.
1.F	-gnus	.	.	2A/	.	1.A	.	2c\	A-
.	.	.	.	4F/	.	.	.	1f	-gnus
!	!	!	!	!LO:TX:t=P:problem:kreska pseudotaktowa	!	!	!	!	!
.	.	.	.	4G/	.	.	.	.	.
=9	=9	=9	=9	=9	=9	=9	=9	=9	=9
.	.	0ryy	.	4A/	.	.	.	.	.
.	.	.	.	4B/	.	.	.	.	.
!LO:TX:t=P:problem:kreska pseudotaktowa	!	!	!	!LO:TX:t=P:problem:kreska pseudotaktowa	!	!LO:TX:t=P:problem:kreska pseudotaktowa	!	!LO:TX:t=P:problem:kreska pseudotaktowa	!
2C/	De-	.	.	2c\	.	2G/	.	2e\	.
2D/	.	.	.	1A	.	2F/	.	2d\	De-
2C/	.	.	.	.	.	2E/	.	2.e\	.
=10	=10	=10	=10	=10	=10	=10	=10	=10	=10
*	*	*	*	*lig	*	*	*	*	*
2BB-X/	.	0ryy	.	1B	.	2F/	.	.	.
.	.	.	.	.	.	.	.	4d\	.
2GG/	.	.	.	.	.	2G/	.	1d	-i
1AA	.	.	.	1A	.	1E	.	.	.
.	.	.	.	.	.	.	.	2c\	.
*	*	*	*	*Xlig	*	*	*	*	*
=11	=11	=11	=11	=11	=11	=11	=11	=11	=11
!LO:TX:a:t=D	!	!	!	!	!	!	!	!	!
!LO:TX:t=P:problem:kreska pseudotaktowa	!	!	!	!	!	!LO:TX:t=P:problem:kreska pseudotaktowa	!	!LO:TX:t=P:problem:kreska pseudotaktowa	!
1D	-i	0ryy	.	1F	-i	0D	-i	0d	.
*	*	*	*	*	*	*	*Xij	*	*
2r	.	.	.	2r	.	.	.	.	.
!	!	!	!	!LO:TX:t=P:problem:kreska pseudotaktowa	!	!	!	!	!
1D	qui	.	.	2D/	qui	.	.	.	.
=12	=12	=12	=12	=12	=12	=12	=12	=12	=12
.	.	0ryy	.	2F/	tol-	0r	.	0r	.
!LO:TX:t=P:problem:kreska pseudotaktowa	!	!	!	!	!	!	!	!	!
2C/	tol-	.	.	2E/	-lis	.	.	.	.
!	!	!	!	!LO:SIC:v:t=custos G	!	!	!	!	!
2AA/	-lis	.	.	2F/	pec-	.	.	.	.
!	!	!	!	!LO:LB:g=original	!	!	!	!	!
!	!	!	!	!LO:TX:t=P:problem:kreska pseudotaktowa	!	!	!	!	!
2BB/	pec-	.	.	2G/	-ca-	.	.	.	.
=13	=13	=13	=13	=13	=13	=13	=13	=13	=13
!	!	!	!	!	!	!LO:TX:t=P:problem:kreska pseudotaktowa	!	!LO:TX:t=P:problem:kreska pseudotaktowa	!
2C/	-ca-	0ryy	.	2E/	-ta	1r	.	1r	.
2D/	-ta	.	.	1A	.	.	.	.	.
1BB	mun-	.	.	.	.	2r	.	2r	.
.	.	.	.	2G/	mun-	1d	qui	2D/	qui
=14	=14	=14	=14	=14	=14	=14	=14	=14	=14
!LO:TX:t=P:problem:kreska pseudotaktowa	!	!	!	!LO:TX:t=P:problem:kreska pseudotaktowa	!	!	!	!	!
1AA	-di	0ryy	.	1A	-di	.	.	2F/	tol-
.	.	.	.	.	.	2c\	tol-	2E/	-lis
1r	.	.	.	1r	.	2A/	-lis	2F/	pec-
!	!	!	!	!	!	!	!	!LO:TX:t=P:problem:kreska pseudotaktowa	!
.	.	.	.	.	.	2B\	pec-	2G/	-ca-
=15	=15	=15	=15	=15	=15	=15	=15	=15	=15
0r	.	0ryy	.	1r	.	2.c\	-ca-	2E/	-ta
.	.	.	.	.	.	.	.	1A	mun-
.	.	.	.	.	.	4d\	-ta	.	.
.	.	.	.	2r	.	1B	mun-	.	.
*	*	*	*	*	*ij	*	*	*	*
.	.	.	.	1d	qui	.	.	2G/	.
=16	=16	=16	=16	=16	=16	=16	=16	=16	=16
!	!	!	!	!	!	!LO:SIC:v:t=custos d	!	!	!
!	!	!	!	!	!	!LO:TX:t=P:problem:kreska pseudotaktowa	!	!	!
2r	.	0ryy	.	.	.	1A	-di	2.A/	.
!	!	!	!	!LO:TX:t=P:problem:kreska pseudotaktowa	!	!	!	!	!
1A	qui	.	.	2c\	tol-	.	.	.	.
!	!	!	!	!	!	!	!	!LO:TX:t=P:problem:kreska pseudotaktowa	!
.	.	.	.	.	.	.	.	4B\	.
!	!	!	!	!	!	!LO:LB:g=original	!	!	!
.	.	.	.	2A\	-lis	1r	.	4c\	.
.	.	.	.	.	.	.	.	4d\	.
!LO:TX:t=P:problem:kreska pseudotaktowa	!	!	!	!	!	!	!	!	!
2G\	tol-	.	.	2B\	pec-	.	.	2.e\	.
=17	=17	=17	=17	=17	=17	=17	=17	=17	=17
2E\	-lis	0ryy	.	2c\	-ca-	2r	.	.	.
.	.	.	.	.	.	.	.	4c\	.
2F\	pec-	.	.	2d\	-ta	1d	.	2f\	-di
!	!	!	!	!	!	!	!	!LO:TX:t=P:problem:kreska pseudotaktowa	!
2G\	-ca-	.	.	2B\	mun-	.	.	1e	.
!	!	!	!	!LO:TX:t=P:problem:kreska pseudotaktowa	!	!LO:TX:t=P:problem:kreska pseudotaktowa	!	!	!
2A\	-ta	.	.	2A/	.	2c\	.	.	.
=18	=18	=18	=18	=18	=18	=18	=18	=18	=18
1F	mun-	0ryy	.	2c\	.	1A	.	2r	.
.	.	.	.	2d\	.	.	.	1d	qui
!LO:TX:t=P:problem:kreska pseudotaktowa	!	!	!	!	!	!	!	!	!
1E	-di	.	.	0e	-di	2B\	.	.	.
!	!	!	!	!	!	!	!	!LO:SIC:v:t=custos A	!
.	.	.	.	.	.	2.c\	.	2c\	tol:-
!	!	!	!	!	!	!	!	!LO:LB:g=original	!
=19	=19	=19	=19	=19	=19	=19	=19	=19	=19
2r	.	0ryy	.	.	.	.	.	2A/	-lis
.	.	.	.	.	.	4d\	.	.	.
2.E\	mun-	.	.	.	.	1B	.	2B\	pec-
*	*	*	*	*lig	*	*	*	*	*
.	.	.	.	1f	qui	.	.	2c\	-ca-
4D/	.	.	.	.	.	.	.	.	.
2D/	-di	.	.	.	.	1A	.	2d\	-ta
=20	=20	=20	=20	=20	=20	=20	=20	=20	=20
!LO:TX:t=P:problem:kreska pseudotaktowa	!	!	!	!	!	!	!	!	!
1E	.	0ryy	.	1e	.	.	.	1B	mun-
.	.	.	.	.	.	2G/	.	.	.
*	*ij	*	*	*Xlig	*	*	*	*	*
!	!	!	!	!	!	!LO:TX:t=P:problem:kreska pseudotaktowa	!	!	!
2AA/	.	.	.	2c\	tol-	1A	.	2A/	-di
!	!	!	!	!	!	!	!	!LO:TX:t=P:problem:kreska pseudotaktowa	!
2D/	qui	.	.	2d\	.	.	.	2f\	.
=21	=21	=21	=21	=21	=21	=21	=21	=21	=21
2D,/	tol-	0ryy	.	2A/	-lis	2r	.	2f\	qui
!LO:TX:t=P:problem:kreska pseudotaktowa	!	!	!	!	!	!	!	!	!
2C/	-lis	.	.	2c\	pec-	1G	qui	2e\	tol-
4GG/	pec-	.	.	1B	-ca-	.	.	4d\	-lis
4AA/	.	.	.	.	.	.	.	4c\	pec-
!	!	!	!	!	!	!LO:TX:t=P:problem:kreska pseudotaktowa	!	!	!
4BB/	.	.	.	.	.	2F/	tol-	4d\	.
4C/	.	.	.	.	.	.	.	4e\	.
=22	=22	=22	=22	=22	=22	=22	=22	=22	=22
2D/	-ca-	0ryy	.	1A	-ta	2D/	-lis	2f\	.
2C/	.	.	.	.	.	2E/	pec-	1e	-ca-
!LO:SIC:v:t=custos GG	!	!	!	!	!	!	!	!	!
*	*	*	*	*lig	*	*	*	*	*
2BB/	-ta	.	.	1B	mun-	2F/	-ca-	.	.
!LO:LB:g=original	!	!	!	!	!	!	!	!	!
!LO:TX:t=P:problem:kreska pseudotaktowa	!	!	!	!	!	!	!	!	!
2GG/	.	.	.	.	.	2G/	-ta	1d	-ta
=23	=23	=23	=23	=23	=23	=23	=23	=23	=23
1AA	mun-	0ryy	.	1A	.	1E	mun-	.	.
.	.	.	.	.	.	.	.	2c\	mun-
!	!	!	!	!	!	!	!	!LO:TX:t=P:problem:kreska pseudotaktowa	!
*	*	*	*	*Xlig	*	*	*	*	*
!LO:TX:t=P:problem:kreska pseudotaktowa	!	!	!	!	!	!	!	!	!
1D	-di	.	.	0F	-di	0D	-di	2d,\	-di
.	.	.	.	.	.	.	.	2A/	mi-
*	*Xij	*	*	*	*Xij	*	*	*	*
=24	=24	=24	=24	=24	=24	=24	=24	=24	=24
!	!	!	!	!LO:TX:t=P:problem:kreska pseudotaktowa	!	!LO:TX:t=P:problem:kreska pseudotaktowa	!	!	!
2r	.	0ryy	.	.	.	.	.	2A/	-ſe-
2A\	mi-	.	.	.	.	.	.	2A/	-re-
2A\	-ſe-	.	.	2r	.	1r	.	2.c\	-re
!LO:TX:t=P:problem:kreska pseudotaktowa	!	!	!	!	!	!	!	!	!
2A\	-re-	.	.	2A/	mi-	.	.	.	.
.	.	.	.	.	.	.	.	4B\	.
=25	=25	=25	=25	=25	=25	=25	=25	=25	=25
2.c\	-re	0ryy	.	2A/	-ſe-	2r	.	4A/	.
.	.	.	.	.	.	.	.	4G/	.
!	!	!	!	!LO:TX:t=P:problem:kreska pseudotaktowa	!	!LO:TX:t=P:problem:kreska pseudotaktowa	!	!LO:TX:t=P:problem:kreska pseudotaktowa	!
.	.	.	.	2A/	-re-	2A/	mi-	2.F/	.
!LO:TX:t=P:problem:kreska pseudotaktowa	!	!	!	!	!	!	!	!	!
4B\	.	.	.	.	.	.	.	.	.
4A\	.	.	.	2.c\	-re	2A/	-ſe-	.	.
4G\	.	.	.	.	.	.	.	4E/	.
1F	.	.	.	.	.	2A/	-re-	2F/	.
.	.	.	.	4B\	.	.	.	.	.
=26	=26	=26	=26	=26	=26	=26	=26	=26	=26
.	.	0ryy	.	2A/	.	2.c\	-re	1C	.
!	!	!	!	!LO:SIC:v:t=custos F	!	!	!	!	!
!LO:TX:t=P:problem:kreska pseudotaktowa	!	!	!	!LO:TX:t=P:problem:kreska pseudotaktowa	!	!	!	!	!
2E\	no-	.	.	2G/	.	.	.	.	.
!	!	!	!	!	!	!LO:TX:t=P:problem:kreska pseudotaktowa	!	!	!
.	.	.	.	.	.	4B\	.	.	.
!	!	!	!	!LO:LB:g=original	!	!	!	!	!
1.F	-bis	.	.	4F/	no-	4A/	.	2.F/	no-
.	.	.	.	4G/	.	4G/	.	.	.
.	.	.	.	4A/	.	1F	.	.	.
!	!	!	!	!LO:TX:t=P:problem:kreska pseudotaktowa	!	!	!	!LO:TX:t=P:problem:kreska pseudotaktowa	!
.	.	.	.	4B\	.	.	.	4G/	.
=27	=27	=27	=27	=27	=27	=27	=27	=27	=27
.	.	0ryy	.	4c\	.	.	.	4A/	.
.	.	.	.	4d\	.	.	.	4B/	.
!	!	!	!	!	!	!LO:TX:t=P:problem:kreska pseudotaktowa	!	!LO:SIC:v:t=custos A	!
2C/	.	.	.	1e	.	2E/	.	2c\	.
!	!	!	!	!	!	!	!	!LO:LB:g=original	!
2D/	.	.	.	.	.	2F/	no-	2A/	.
2GG/	.	.	.	1d	.	2G/	-bis	2B-X/	.
=28	=28	=28	=28	=28	=28	=28	=28	=28	=28
1AA	.	0ryy	.	.	.	1E	.	1A	.
!	!	!	!	!LO:TX:t=P:problem:kreska pseudotaktowa	!	!	!	!	!
.	.	.	.	2c\	-bis	.	.	.	.
!LO:TX:t=P:problem:kreska pseudotaktowa	!	!	!	!	!	!	!	!	!
1D	.	.	.	2d\	.	0D	.	2F,/	-bis
!	!	!	!	!	!	!	!	!LO:TX:t=P:problem:kreska pseudotaktowa	!
*	*	*	*	*	*ij	*	*	*	*
.	.	.	.	2A/	mi-	.	.	2f\	mi-
=29	=29	=29	=29	=29	=29	=29	=29	=29	=29
!	!	!	!	!	!	!LO:SIC:v:t=custos A	!	!	!
2r	.	0ryy	.	2A/	-se-	.	.	2f\	-ſe-
!	!	!	!	!LO:TX:t=P:problem:kreska pseudotaktowa	!	!	!	!	!
2A\	.	.	.	2A/	-re-	.	.	2f\	-re-
!	!	!	!	!	!	!LO:TX:t=P:problem:kreska pseudotaktowa	!	!	!
!	!	!	!	!	!	!LO:LB:g=original	!	!	!
2A\	.	.	.	2.c\	-re	1r	.	2e\	-re
!LO:TX:t=P:problem:kreska pseudotaktowa	!	!	!	!	!	!	!	!	!
2A\	.	.	.	.	.	.	.	2A/	mi-
.	.	.	.	4B\	.	.	.	.	.
=30	=30	=30	=30	=30	=30	=30	=30	=30	=30
2.c\	mi-	0ryy	.	4A/	no-	2r	.	2A/	-ſe-
.	.	.	.	4G/	.	.	.	.	.
.	.	.	.	2.F/	.	2A/	.	2A/	-re-
4B\	-ſe-	.	.	.	.	.	.	.	.
4A\	-re-	.	.	.	.	2A/	.	2.c\	-re
4G\	-re	.	.	4E/	.	.	.	.	.
!	!	!	!	!LO:TX:t=P:problem:kreska pseudotaktowa	!	!LO:TX:t=P:problem:kreska pseudotaktowa	!	!	!
1F	no-	.	.	2F/	.	2A/	.	.	.
.	.	.	.	.	.	.	.	4B\	.
=31	=31	=31	=31	=31	=31	=31	=31	=31	=31
.	.	0ryy	.	1C	.	2.c\	.	2A/	.
!LO:TX:t=P:problem:kreska pseudotaktowa	!	!	!	!	!	!	!	!LO:TX:t=P:problem:kreska pseudotaktowa	!
2E\	.	.	.	.	.	.	.	2G/	.
.	.	.	.	.	.	4B\	.	.	.
!LO:SIC:v:t=custos C	!	!	!	!	!	!	!	!	!
1.F	.	.	.	2.F/	-bis	4A/	.	4F/	no-
*	*	*	*	*	*Xij	*	*	*	*
.	.	.	.	.	.	4G/	.	4G/	.
.	.	.	.	.	.	1F	.	4A/	.
!	!	!	!	!LO:TX:t=P:problem:kreska pseudotaktowa	!	!	!	!LO:TX:t=P:problem:kreska pseudotaktowa	!
.	.	.	.	4G/	.	.	.	4B\	.
!LO:LB:g=original	!	!	!	!	!	!	!	!	!
=32	=32	=32	=32	=32	=32	=32	=32	=32	=32
.	.	0ryy	.	4A/	.	.	.	4c\	.
.	.	.	.	4B/	.	.	.	4d\	.
!LO:TX:t=P:problem:kreska pseudotaktowa	!	!	!	!	!	!	!	!	!
2C/	.	.	.	2c\	no-	2E/	.	1e	.
2D/	.	.	.	2A/	-bis	2F/	.	.	.
2GG/	.	.	.	2B/	.	2G/	.	1d	.
=33	=33	=33	=33	=33	=33	=33	=33	=33	=33
1AA	-bis	0ryy	.	1A	.	1E	.	.	.
.	.	.	.	.	.	.	.	2c#X\	-bis
!	!	!	!	!LO:TX:a:t=2dum Agnus	!	!	!	!	!
!LO:N:vis=0	!	!	!	!LO:N:vis=0	!	!LO:N:vis=0	!	!LO:N:vis=0	!
1D;	.	.	.	1D	.	1D;	.	1d	.
!	!	!	!	!	!	!	!	!LO:LB:g=original	!
=34||	=34||	=34||	=34||	=34||	=34||	=34||	=34||	=34||	=34||
*M2/1	*	*M2/1	*	*M2/1	*	*M2/1	*	*M2/1	*
*met(c|)	*	*met(c|)	*	*met(c|)	*	*met(c|)	*	*met(c|)	*
!LO:TX:a:t=1m(us)	!	!LO:TX:a:t=2dum	!	!LO:TX:t=P:problem:kreska pseudotaktowa	!	!	!	!LO:TX:a:t=2dum Agnus	!
1r	.	0r	.	0r	.	0r	.	1d	A-
1D	A-	.	.	.	.	.	.	1.f	-gnus
=35	=35	=35	=35	=35	=35	=35	=35	=35	=35
!	!	!	!	!	!	!LO:TX:t=P:problem:kreska pseudotaktowa	!	!	!
1.F	-gnus	0r	.	1D	A-	1r	.	.	.
!	!	!	!	!	!	!	!	!LO:TX:t=P:problem:kreska pseudotaktowa	!
.	.	.	.	.	.	.	.	2e\	De-
.	.	.	.	1.F	-gnus	1D	A-	2d\	.
!LO:TX:t=P:problem:kreska pseudotaktowa	!	!	!	!	!	!	!	!	!
2E\	.	.	.	.	.	.	.	2c\	.
=36	=36	=36	=36	=36	=36	=36	=36	=36	=36
!	!	!LO:TX:t=P:problem:kreska pseudotaktowa	!	!	!	!	!	!	!
2D/	.	0r	.	.	.	1.F	-gnus	2B\	.
2C/	.	.	.	2E/	.	.	.	2A/	.
1BB	De-	.	.	1D	De-	.	.	1d	-i
.	.	.	.	.	.	2G/	De-	.	.
=37	=37	=37	=37	=37	=37	=37	=37	=37	=37
!LO:TX:a:t=4	!	!	!	!LO:TX:t=P:problem:kreska pseudotaktowa	!	!LO:TX:t=P:problem:kreska pseudotaktowa	!	!LO:TX:t=P:problem:kreska pseudotaktowa	!
00AA	-i	1A	A-	1E	-i	0A	-i	1c	.
.	.	1.c	-gn(us)	2r	.	.	.	1r	.
!	!	!	!	!LO:TX:t=P:problem:kreska pseudotaktowa	!	!	!	!	!
*	*	*	*	*	*ij	*	*	*	*ij
.	.	.	.	2A/	A-	.	.	.	.
=38	=38	=38	=38	=38	=38	=38	=38	=38	=38
!LO:TX:t=P:problem:kreska pseudotaktowa	!	!	!	!	!	!	!	!	!
.	.	.	.	1.c	-gnus	0r	.	1A	A-
!	!	!LO:TX:t=P:problem:kreska pseudotaktowa	!	!	!	!	!	!	!
.	.	2B\	De-	.	.	.	.	.	.
.	.	2A\	-i	.	.	.	.	1.c	-gnus
.	.	2G\	.	2B\	.	.	.	.	.
=39	=39	=39	=39	=39	=39	=39	=39	=39	=39
0r	.	1F	.	1A	De-	2r	.	.	.
.	.	.	.	.	.	1A	.	2d\	.
*	*	*lig	*	*	*	*	*	*	*
!	!	!	!	!LO:TX:t=P:problem:kreska pseudotaktowa	!	!	!	!LO:TX:a:t=4	!
.	.	1E	.	1B	-i	.	.	00e	De-
!	!	!	!	!	!	!LO:TX:t=P:problem:kreska pseudotaktowa	!	!	!
.	.	.	.	.	.	2G/	.	.	.
=40	=40	=40	=40	=40	=40	=40	=40	=40	=40
1r	.	1AA	.	2r	.	2A/	.	.	.
!	!	!	!	!LO:TX:t=P:problem:kreska pseudotaktowa	!	!	!	!	!
.	.	.	.	2A/	A-	1c	.	.	.
!	!	!LO:TX:a:t=4	!	!	!	!	!	!	!
*	*ij	*	*	*	*	*	*	*	*
1AA	A-	00E	.	1.c	-gnus	.	.	.	.
.	.	.	.	.	.	4B/	.	.	.
.	.	.	.	.	.	4A/	.	.	.
!	!	!	!	!	!	!LO:TX:t=P:problem:kreska pseudotaktowa	!	!	!
*	*	*Xlig	*	*	*	*	*	*	*
=41	=41	=41	=41	=41	=41	=41	=41	=41	=41
!	!	!	!	!	!	!LO:SIC:v:t=custos A	!	!	!
1.C	.	.	.	.	.	2G/	.	.	.
!	!	!	!	!LO:TX:t=P:problem:kreska pseudotaktowa	!	!	!	!	!
!	!	!	!	!	!	!LO:LB:g=original	!	!	!
.	.	.	.	2d\	De-	2A/	.	.	.
*	*	*	*	*	*	*	*	*lig	*
.	.	.	.	1e	.	2E/	.	1c	.
2D/	.	.	.	.	.	1A	.	.	.
=42	=42	=42	=42	=42	=42	=42	=42	=42	=42
!LO:TX:t=P:problem:kreska pseudotaktowa	!	!LO:TX:t=P:problem:kreska pseudotaktowa	!	!	!	!	!	!	!
1E	-gnus	.	.	1e	.	.	.	1B	.
.	.	.	.	.	.	2G/	.	.	.
*	*	*	*	*	*	*	*	*Xlig	*
!	!	!	!	!	!	!LO:TX:t=P:problem:kreska pseudotaktowa	!	!	!
2AA/	De-	1r	.	2c\	.	1A	.	1A	-i
2D/	.	.	.	2d\	.	.	.	.	.
*	*	*	*	*	*	*	*	*	*
=43	=43	=43	=43	=43	=43	=43	=43	=43	=43
!	!	!	!	!LO:TX:t=P:problem:kreska pseudotaktowa	!	!	!	!	!
1.F	.	0r	.	1A	-i	1r	.	2r	.
!	!	!	!	!	!	!	!	!LO:TX:t=P:problem:kreska pseudotaktowa	!
*	*	*	*ij	*	*Xij	*	*	*	*
.	.	.	.	.	.	.	.	2D/	A-
.	.	.	.	2r	.	1D	A-	1.F	-gnus
!LO:TX:t=P:problem:kreska pseudotaktowa	!	!	!	!	!	!	!	!	!
2E\	.	.	.	2A/	qui	.	.	.	.
=44	=44	=44	=44	=44	=44	=44	=44	=44	=44
!	!	!LO:TX:t=P:problem:kreska pseudotaktowa	!	!	!	!	!	!	!
2D/	.	1r	.	0d	tol-	1.F	.	.	.
2C/	.	.	.	.	.	.	.	2E/	De-
!LO:SIC:v:t=custos AA	!	!	!	!	!	!	!	!LO:TX:t=P:problem:kreska pseudotaktowa	!
1BB	.	2r	.	.	.	.	.	1D	-i
.	.	2D/	A-	.	.	2G/	-gnus	.	.
*	*	*	*	*	*	*	*	*	*Xij
!LO:LB:g=original	!	!	!	!	!	!	!	!	!
=45	=45	=45	=45	=45	=45	=45	=45	=45	=45
!LO:TX:t=P:problem:kreska pseudotaktowa	!	!	!	!LO:TX:t=P:problem:kreska pseudotaktowa	!	!LO:TX:t=P:problem:kreska pseudotaktowa	!	!	!
0AA	-i	1.F	-gnus	1c	-lis	1A	De-	1r	.
.	.	.	.	2r	.	2.A/	-i	2r	.
*	*Xij	*	*	*	*	*	*	*	*
!	!	!LO:TX:t=P:problem:kreska pseudotaktowa	!	!	!	!	!	!	!
.	.	2E\	.	2E/	pec-	.	.	2A/	qui
.	.	.	.	.	.	4G/	.	.	.
=46	=46	=46	=46	=46	=46	=46	=46	=46	=46
0r	.	2D/	De-	2A/	-ca-	2F/	.	0d	tol-
!	!	!	!	!	!	!LO:TX:t=P:problem:kreska pseudotaktowa	!	!	!
.	.	2C/	.	2A/	-ta	2E/	.	.	.
.	.	1BB	.	2B\	mun-	1D	.	.	.
!	!	!	!	!LO:TX:t=P:problem:kreska pseudotaktowa	!	!	!	!	!
.	.	.	.	2G/	.	.	.	.	.
=47	=47	=47	=47	=47	=47	=47	=47	=47	=47
!	!	!LO:TX:t=P:problem:kreska pseudotaktowa	!	!	!	!	!	!	!
1r	.	0AA	-i	2.A/	.	2E/	.	2c\	-lis
*	*	*	*Xij	*	*	*	*	*	*
!	!	!	!	!	!	!LO:TX:t=P:problem:kreska pseudotaktowa	!	!	!
.	.	.	.	.	.	2E/	qui	2A/	pec-
!	!	!	!	!LO:SIC:v:t=custos A	!	!	!	!	!
.	.	.	.	4G/	.	.	.	.	.
!	!	!	!	!	!	!	!	!LO:SIC:v:t=custos e	!
!	!	!	!	!LO:LB:g=original	!	!	!	!	!
2r	.	.	.	4A/	.	1A	tol-	2e\	-ca-
.	.	.	.	4B/	.	.	.	.	.
!LO:TX:t=P:problem:kreska pseudotaktowa	!	!	!	!	!	!	!	!LO:TX:t=P:problem:kreska pseudotaktowa	!
!	!	!	!	!	!	!	!	!LO:LB:g=original	!
2AA/	qui	.	.	1c	.	.	.	2e\	-ta
=48	=48	=48	=48	=48	=48	=48	=48	=48	=48
2D/	tol-	0r	.	.	.	2A/	-lis	1f	mu(n)-
!	!	!	!	!	!	!LO:TX:t=P:problem:kreska pseudotaktowa	!	!	!
2D/	-lis	.	.	1B	.	2B/	pec-	.	.
!	!	!	!	!	!	!	!	!LO:TX:t=P:problem:kreska pseudotaktowa	!
2E\	pec-	.	.	.	.	2G/	-ca-	1e	-di
!LO:TX:t=P:problem:kreska pseudotaktowa	!	!	!	!	!	!	!	!	!
2C/	-ca-	.	.	1A	.	2A/	-ta	.	.
=49	=49	=49	=49	=49	=49	=49	=49	=49	=49
2D/	-ta	0r	.	.	.	2B/	mun-	2r	.
!	!	!	!	!LO:TX:t=P:problem:kreska pseudotaktowa	!	!	!	!	!
*	*	*	*	*	*	*	*	*	*ij
2E\	mun-	.	.	2G/	-di	1c	.	2E/	qui
!LO:TX:t=P:problem:kreska pseudotaktowa	!	!	!	!	!	!	!	!	!
1F	-di	.	.	2A,/	.	.	.	2A/	tol-
!	!	!	!	!LO:TX:t=P:problem:kreska pseudotaktowa	!	!	!	!	!
.	.	.	.	2A/	pec-	4B/	-di	2A/	-lis
!	!	!	!	!	!	!LO:TX:t=P:problem:kreska pseudotaktowa	!	!	!
.	.	.	.	.	.	4A/	.	.	.
=50	=50	=50	=50	=50	=50	=50	=50	=50	=50
!	!	!LO:TX:t=P:problem:kreska pseudotaktowa	!	!	!	!	!	!	!
1E	.	1r	.	1.e	-ca-	2G/	.	2B\	pec-
!	!	!	!	!	!	!	!	!LO:TX:t=P:problem:kreska pseudotaktowa	!
.	.	.	.	.	.	2E/	.	2G/	-ca-
!LO:TX:t=P:problem:kreska pseudotaktowa	!	!	!	!	!	!LO:TX:t=P:problem:kreska pseudotaktowa	!	!	!
1AA	.	2r	.	.	.	1A	.	2A/	-ta
.	.	2AA/	qui	2e\	-ta	.	.	1c	mun-
=51	=51	=51	=51	=51	=51	=51	=51	=51	=51
0r	.	2D\	tol-	1f	mun-	2A/	.	.	.
!	!	!LO:TX:t=P:problem:kreska pseudotaktowa	!	!	!	!	!	!	!
.	.	2D\	-lis	.	.	2B/	.	1B	.
!	!	!	!	!LO:TX:t=P:problem:kreska pseudotaktowa	!	!	!	!	!
.	.	2E\	pec-	1e	-di	2G/	.	.	.
!	!	!	!	!	!	!LO:SIC:v:t=custos B	!	!	!
!	!	!	!	!	!	!LO:TX:t=P:problem:kreska pseudotaktowa	!	!	!
.	.	2C/	-ca-	.	.	2A/	.	1A	.
!	!	!	!	!	!	!LO:LB:g=original	!	!	!
=52	=52	=52	=52	=52	=52	=52	=52	=52	=52
1r	.	2D\	-ta	2r	.	1B	.	.	.
!	!	!	!	!	!	!	!	!LO:TX:t=P:problem:kreska pseudotaktowa	!
*	*	*	*	*	*ij	*	*	*	*
.	.	2E\	mun-	2e\	pec-	.	.	2G/	.
!	!	!	!	!	!	!LO:TX:t=P:problem:kreska pseudotaktowa	!	!	!
2r	.	1F	.	2c\	-ca-	1A	.	2A/	.
!	!	!	!	!LO:TX:t=P:problem:kreska pseudotaktowa	!	!	!	!	!
1A	pec-	.	.	2d\	-ta	.	.	2D/	.
=53	=53	=53	=53	=53	=53	=53	=53	=53	=53
!	!	!LO:TX:t=P:problem:kreska pseudotaktowa	!	!	!	!	!	!LO:TX:t=P:problem:kreska pseudotaktowa	!
.	.	1E	-di	1B	mun-	2r	.	1E	-di
!LO:TX:t=P:problem:kreska pseudotaktowa	!	!	!	!	!	!	!	!	!
*	*	*	*	*	*	*	*	*	*Xij
2G\	-ca-	.	.	.	.	2e\	pec-	.	.
!	!	!	!	!LO:TX:t=P:problem:kreska pseudotaktowa	!	!	!	!	!
2A\	-ta	2r	.	1A	-di	2c\	-ca-	1r	.
!	!	!	!	!	!	!LO:TX:t=P:problem:kreska pseudotaktowa	!	!	!
2D/	mun-	1A	pec-	.	.	2d\	-ta	.	.
=54	=54	=54	=54	=54	=54	=54	=54	=54	=54
!LO:TX:t=P:problem:kreska pseudotaktowa	!	!	!	!	!	!	!	!	!
1E	-di	.	.	2r	.	1B	mun-	2r	.
.	.	2G\	-ca-	2E/	pec-	.	.	2e\	pec-
!	!	!	!	!	!	!LO:TX:t=P:problem:kreska pseudotaktowa	!	!	!
2r	.	2A\	-ta	1F	-ca-	1A	-di	2c\	-ca-
1D	.	2D\	mun-	.	.	.	.	2d\	-ta
=55	=55	=55	=55	=55	=55	=55	=55	=55	=55
!	!	!LO:TX:t=P:problem:kreska pseudotaktowa	!	!	!	!	!	!	!
.	.	1E	-di	2G/	-ta	2r	.	2B\	.
!	!	!	!	!LO:TX:t=P:problem:kreska pseudotaktowa	!	!	!	!	!
2C/	.	.	.	2E/	mun-	2A/	.	1e	.
2D/	.	1r	.	2A/	-di	2F/	.	.	.
!	!	!	!	!	!	!LO:TX:t=P:problem:kreska pseudotaktowa	!	!	!
*	*	*	*	*	*Xij	*	*	*	*
2GG/	.	.	.	2B/	.	2G/	.	1d	.
=56	=56	=56	=56	=56	=56	=56	=56	=56	=56
!	!	!	!	!LO:TX:t=P:problem:kreska pseudotaktowa	!	!	!	!	!
1AA	.	2r	.	1A	.	1E	.	.	.
.	.	2A\	do-	.	.	.	.	2c#X\	mun-
!LO:TX:t=P:problem:kreska pseudotaktowa	!	!	!	!	!	!	!	!	!
1D	.	2F\	-na	2r	.	0.D	.	0d	-di
.	.	2D\	no-	1A	do-	.	.	.	.
=57	=57	=57	=57	=57	=57	=57	=57	=57	=57
!	!	!LO:TX:t=P:problem:kreska pseudotaktowa	!	!	!	!LO:TX:t=P:problem:kreska pseudotaktowa	!	!LO:TX:t=P:problem:kreska pseudotaktowa	!
2r	.	1A	-bis	.	.	.	.	.	.
!	!	!	!	!LO:TX:t=P:problem:kreska pseudotaktowa	!	!	!	!	!
2A\	do-	.	.	2F/	-na	.	.	.	.
2F\	-na	1r	.	2D/	no-	.	.	2r	.
2D\	no-	.	.	1d	-bis	.	.	2d\	do-
=58	=58	=58	=58	=58	=58	=58	=58	=58	=58
!LO:TX:t=P:problem:kreska pseudotaktowa	!	!	!	!	!	!	!	!	!
1A	-bis	2r	.	.	.	1r	.	1e	-na
*	*	*	*ij	*	*	*	*	*	*
.	.	2A\	do-	2c\	pa-	.	.	.	.
1r	.	2F\	-na	2d\	-cem	2r	.	1f	no-
!	!	!	!	!LO:SIC:v:t=custos e	!	!	!	!	!
!	!	!	!	!LO:TX:t=P:problem:kreska pseudotaktowa	!	!LO:TX:t=P:problem:kreska pseudotaktowa	!	!	!
.	.	2D\	no-	2d\	do-	2d\	do-	.	.
!	!	!	!	!LO:LB:g=original	!	!	!	!	!
=59	=59	=59	=59	=59	=59	=59	=59	=59	=59
!LO:SIC:v:t=custos A	!	!LO:TX:t=P:problem:kreska pseudotaktowa	!	!	!	!	!	!	!
2r	.	1A	-bis	1e	-na	2c\	-na	1e	-bis
!LO:TX:t=P:problem:kreska pseudotaktowa	!	!	!	!	!	!	!	!	!
!LO:LB:g=original	!	!	!	!	!	!	!	!	!
2A\	do-	.	.	.	.	1A	no-	.	.
2F\	-na	1r	.	1f	no-	.	.	1r	.
2D\	no-	.	.	.	.	1d	-bis	.	.
=60	=60	=60	=60	=60	=60	=60	=60	=60	=60
2A\	-bis	1r	.	2e\	-bis	.	pa-	2r	.
!	!	!	!	!	!	!	!	!LO:SIC:v:t=custos F	!
!	!	!	!	!	!	!LO:TX:t=P:problem:kreska pseudotaktowa	!	!LO:TX:t=P:problem:kreska pseudotaktowa	!
*	*	*	*	*	*	*	*	*	*ij
2A\	pa-	.	.	1A	pa-	2c\	-cem	2A/	do-
!LO:TX:t=P:problem:kreska pseudotaktowa	!	!	!	!	!	!	!	!	!
!	!	!	!	!	!	!	!	!LO:LB:g=original	!
1D	-cem	2r	.	.	.	2d\	.	2F/	-na
!	!	!LO:TX:t=P:problem:kreska pseudotaktowa	!	!LO:TX:t=P:problem:kreska pseudotaktowa	!	!	!	!	!
.	.	2D\	do-	2F/	.	2A/	.	2D/	no-
=61	=61	=61	=61	=61	=61	=61	=61	=61	=61
!	!	!	!	!	!	!	!	!LO:TX:t=P:problem:kreska pseudotaktowa	!
2r	.	2BB/	-na	1G	-cem	1B	.	1d	-bis
*	*ij	*	*	*	*	*	*	*	*Xij
1G	do-	2GG/	no-	.	.	.	.	.	.
!	!	!	!	!	!	!LO:TX:t=P:problem:kreska pseudotaktowa	!	!	!
.	.	2D\	-bis	0A	.	1A	.	2r	.
*	*	*	*Xij	*	*	*	*	*	*
2F\	-na	2D\	pa-	.	.	.	.	1d	do-
=62	=62	=62	=62	=62	=62	=62	=62	=62	=62
!	!	!LO:TX:t=P:problem:kreska pseudotaktowa	!	!LO:TX:t=P:problem:kreska pseudotaktowa	!	!LO:TX:t=P:problem:kreska pseudotaktowa	!	!	!
2E\	no-	1AA	-cem	.	.	1r	.	.	.
2C/	-bis	.	.	.	.	.	.	2c\	-na
1E	pa-	1r	.	1r	.	2r	.	2B\	no-
*	*	*	*	*	*	*	*ij	*	*
.	.	.	.	.	.	1G	do-	2G/	-bis
=63	=63	=63	=63	=63	=63	=63	=63	=63	=63
!LO:TX:t=P:problem:kreska pseudotaktowa	!	!	!	!	!	!	!	!	!
1D	-cem/	2r	.	0r	.	.	.	1B	pa-
!	!	!	!	!	!	!LO:TX:t=P:problem:kreska pseudotaktowa	!	!	!
*	*	*	*ij	*	*	*	*	*	*
.	.	1D	do-	.	.	2F/	-na	.	.
!	!	!	!	!	!	!	!	!LO:TX:t=P:problem:kreska pseudotaktowa	!
2r	.	.	.	.	.	2E/	no-	1A	-cem
1A	do-	2C/	-na	.	.	2C/	-bis	.	.
=64	=64	=64	=64	=64	=64	=64	=64	=64	=64
.	-na	2BB/	no-	0r	.	2F/	pa-	2r	.
*	*	*	*	*	*	*	*	*	*ij
2G\	no-	2GG/	-bis	.	.	2G/	.	2B\	do-
2F/	-bis	1BB	pa-	.	.	1D	-cem/	2B\	-na
2D/	pa-	.	.	.	.	.	.	2G/	no-
=65	=65	=65	=65	=65	=65	=65	=65	=65	=65
!	!	!LO:TX:t=P:problem:kreska pseudotaktowa	!	!LO:TX:t=P:problem:kreska pseudotaktowa	!	!LO:TX:a:t=3.	!	!	!
1F	.	0AA	-cem	2r	.	0r	.	0A	-bis
*	*	*	*Xij	*	*ij	*	*	*	*
.	.	.	.	1d	do-	.	.	.	.
!LO:TX:t=P:problem:kreska pseudotaktowa	!	!	!	!	!	!	!	!	!
1E	-cem	.	.	.	.	.	.	.	.
!	!	!	!	!LO:TX:t=P:problem:kreska pseudotaktowa	!	!	!	!	!
.	.	.	.	2c\	-na	.	.	.	.
=66	=66	=66	=66	=66	=66	=66	=66	=66	=66
!	!	!	!	!	!	!LO:SIC:v:t=custos G	!	!	!
!	!	!	!	!	!	!LO:TX:t=P:problem:kreska pseudotaktowa	!	!	!
2D,/	.	0r	.	2B\	no-	1r	.	2F/	pa-
2.GG/	.	.	.	2G/	-bis	.	.	2G/	.
!	!	!	!	!	!	!LO:LB:g=original	!	!	!
.	.	.	.	1B	pa-	2r	.	0D	-cem
*	*	*	*	*	*	*	*	*	*Xij
4AA/	.	.	.	.	.	.	.	.	.
4BB/	.	.	.	.	.	1G	do-	.	.
!LO:TX:t=P:problem:kreska pseudotaktowa	!	!	!	!	!	!	!	!	!
4C/	.	.	.	.	.	.	.	.	.
=67	=67	=67	=67	=67	=67	=67	=67	=67	=67
*lig	*	*	*	*	*	*	*	*	*
!	!	!	!	!LO:TX:t=P:problem:kreska pseudotaktowa	!	!	!	!LO:TX:t=P:problem:kreska pseudotaktowa	!
1D	.	2r	.	0A	-cem	.	.	.	.
*	*	*	*	*	*Xij	*	*	*	*
!	!	!	!	!	!	!LO:TX:t=P:problem:kreska pseudotaktowa	!	!	!
.	.	1D	do-	.	.	2F/	-na	.	.
1AA	.	.	.	.	.	2E/	no-	2r	.
.	.	2C/	-na	.	.	2C/	-bis	1A	do-
!	!	!LO:TX:t=P:problem:kreska pseudotaktowa	!	!	!	!	!	!	!
*Xlig	*	*	*	*	*	*	*	*	*
=68	=68	=68	=68	=68	=68	=68	=68	=68	=68
1D	.	2BB/	no-	0r	.	2F/	pa-	.	.
.	.	2GG/	-bis	.	.	2G/	.	2G/	-na
!	!	!	!	!	!	!LO:TX:t=P:problem:kreska pseudotaktowa	!	!	!
2r	.	1BB	pa-	.	.	1D	-cem	2F/	no-
1G	do-	.	.	.	.	.	.	2D/	-bis
=69	=69	=69	=69	=69	=69	=69	=69	=69	=69
!	!	!LO:TX:t=P:problem:kreska pseudotaktowa	!	!	!	!LO:TX:t=P:problem:kreska pseudotaktowa	!	!	!
.	.	0AA	-cem	2r	.	1r	.	1A	pa-
!LO:TX:t=P:problem:kreska pseudotaktowa	!	!	!	!	!	!	!	!	!
2F\	-na	.	.	1d	do-	.	.	.	.
!	!	!	!	!	!	!	!	!LO:TX:t=P:problem:kreska pseudotaktowa	!
*	*	*	*ij	*	*	*	*ij	*	*
2E\	no-	.	.	.	.	1E	do-	1A	-ce(m)
!	!	!	!	!LO:TX:t=P:problem:kreska pseudotaktowa	!	!	!	!	!
2C/	-bis	.	.	2c\	-na	.	.	.	.
=70	=70	=70	=70	=70	=70	=70	=70	=70	=70
2F\	pa-	2D/	do-	2B\	no-	2D/	-na	1r	.
2G\	.	2C/	-na	2G/	-bis	2E/	no-	.	.
!LO:SIC:v:t=custos D	!	!	!	!	!	!	!	!	!
!LO:TX:t=P:problem:kreska pseudotaktowa	!	!	!	!	!	!	!	!	!
1D	-cem	2BB/	no-	1B	pa-	2F/	-bis	2r	.
*	*	*	*	*	*	*	*	*	*ij
.	.	2GG/	-bis	.	.	2G/	pa-	2d\	do-
!LO:LB:g=original	!	!	!	!	!	!	!	!	!
=71	=71	=71	=71	=71	=71	=71	=71	=71	=71
!LO:TX:t=P:problem:kreska pseudotaktowa	!	!LO:TX:t=P:problem:kreska pseudotaktowa	!	!LO:TX:t=P:problem:kreska pseudotaktowa	!	!	!	!	!
1r	.	1AA	pa-	0A	-cem	1E	.	2d\	-na
.	.	.	.	.	.	.	.	2c\	no-
!	!	!	!	!	!	!	!	!LO:TX:t=P:problem:kreska pseudotaktowa	!
1D	do-	1F	.	.	.	2D/	.	1d	-bis
!	!	!	!	!	!	!LO:TX:t=P:problem:kreska pseudotaktowa	!	!	!
.	.	.	.	.	.	2A/	-cem	.	.
*	*	*	*	*	*	*	*Xij	*	*
=72	=72	=72	=72	=72	=72	=72	=72	=72	=72
2C/	-na	2E\	.	2r	.	2A/	do-	1r	.
!	!	!LO:TX:t=P:problem:kreska pseudotaktowa	!	!	!	!LO:TX:t=P:problem:kreska pseudotaktowa	!	!	!
2BB/	no-	2D\	.	2d\	do-	2G/	-na	.	.
!LO:TX:t=P:problem:kreska pseudotaktowa	!	!	!	!	!	!	!	!	!
1AA	-bis	1E	.	2d\	-na	2A/	no-	2r	.
.	.	.	.	2c\	no-	1c	-bis	2A/	do-
=73	=73	=73	=73	=73	=73	=73	=73	=73	=73
!	!	!	!	!LO:TX:t=P:problem:kreska pseudotaktowa	!	!	!	!	!
1r	.	2D\	.	1d	-bis	.	.	2A/	-na
!	!	!	!	!	!	!LO:TX:t=P:problem:kreska pseudotaktowa	!	!	!
.	.	2GG/	.	.	.	2B\	pa-	2G/	no-
*	*	*lig	*	*	*	*	*	*	*
!	!	!	!	!	!	!	!	!LO:TX:a:t=vertae\ncito	!
!	!	!	!	!	!	!	!	!LO:SIC:v:t=custos c	!
!	!	!	!	!	!	!	!	!LO:TX:t=P:problem:kreska pseudotaktowa	!
2r	.	1D	-cem	2r	.	2.A\	-cem	1A	-bis
!LO:TX:t=P:problem:kreska pseudotaktowa	!	!	!	!	!	!	!	!	!
*	*	*	*Xij	*	*ij	*	*	*	*Xij
2D/	do-	.	.	1f	do-	.	.	.	.
.	.	.	.	.	.	4G/	.	.	.
!	!	!	!	!	!	!	!	!LO:LB:g=original	!
=74	=74	=74	=74	=74	=74	=74	=74	=74	=74
!	!	!LO:TX:t=P:problem:kreska pseudotaktowa	!	!	!	!	!	!	!
2D/	-na	1AA	.	.	.	2A/	.	2r	.
2C/	no-	.	.	2e\	-na	2E/	.	2c\	do-
!	!	!	!	!LO:TX:t=P:problem:kreska pseudotaktowa	!	!	!	!	!
*	*	*Xlig	*	*	*	*	*	*	*
2D/	-bis	1r	.	2d\	no-	2.F/	.	2B\	-na
2.F\	pa-	.	.	2c\	-bis	.	.	2.A/	no-
.	.	.	.	.	.	4G/	.	.	.
*	*	*	*	*	*Xij	*	*	*	*
=75	=75	=75	=75	=75	=75	=75	=75	=75	=75
!	!	!	!	!LO:SIC:v:t=custos A	!	!	!	!	!
!	!	!	!	!LO:TX:t=P:problem:kreska pseudotaktowa	!	!	!	!	!
.	.	1r	.	1d	pa-	1A	.	.	.
4E\	.	.	.	.	.	.	.	4G/	-bis
!LO:TX:t=P:problem:kreska pseudotaktowa	!	!	!	!	!	!	!	!LO:TX:t=P:problem:kreska pseudotaktowa	!
2D/	.	.	.	.	.	.	.	2F/	.
!	!	!	!	!LO:TX:t=P:problem:kreska pseudotaktowa	!	!LO:TX:t=P:problem:kreska pseudotaktowa	!	!	!
!	!	!	!	!LO:LB:g=original	!	!	!	!	!
2C/	.	2r	.	1A	-cem	1r	.	2E/	.
!	!	!LO:TX:t=P:problem:kreska pseudotaktowa	!	!	!	!	!	!	!
2D/	.	2D/	Do-	.	.	.	.	2D/	.
=76	=76	=76	=76	=76	=76	=76	=76	=76	=76
1AA	-cem	2D\	-na	1r	.	2r	.	1E	pa-
.	.	2C/	no-	.	.	2c\	do-	.	.
!LO:TX:t=P:problem:kreska pseudotaktowa	!	!	!	!	!	!LO:SIC:v:t=custos A	!	!LO:TX:t=P:problem:kreska pseudotaktowa	!
*	*	*	*	*	*ij	*	*	*	*
1D	.	2D\	-bis	2d\	pa-	2B\	-na	1D	-cem
!	!	!LO:TX:t=P:problem:kreska pseudotaktowa	!	!	!	!	!	!	!
!	!	!	!	!	!	!LO:LB:g=original	!	!	!
.	.	2.F\	pa-	2d\	.	2.A/	no-	.	.
=77	=77	=77	=77	=77	=77	=77	=77	=77	=77
0r	.	.	.	2c\	-cem	.	.	1r	.
*	*	*	*	*	*Xij	*	*	*	*
.	.	4E\	.	.	.	4G/	.	.	.
!	!	!	!	!LO:TX:t=P:problem:kreska pseudotaktowa	!	!LO:TX:t=P:problem:kreska pseudotaktowa	!	!	!
.	.	2D\	.	2d\	.	2F/	.	.	.
.	.	2C/	.	1r	.	2E/	.	2r	.
!	!	!LO:TX:t=P:problem:kreska pseudotaktowa	!	!	!	!	!	!	!
.	.	2D/	.	.	.	2D/	.	2d\	do-
=78	=78	=78	=78	=78	=78	=78	=78	=78	=78
0r	.	1AA	.	2r	.	2E/	.	2d\	-na
.	.	.	.	2.f\	do-	2A/	-bis	2c\	no-
!	!	!	!	!	!	!	!	!LO:TX:t=P:problem:kreska pseudotaktowa	!
.	.	1BBn	.	.	.	2A/	pa-	1d	-bis
.	.	.	.	4e\	-na	.	.	.	.
!	!	!	!	!LO:TX:t=P:problem:kreska pseudotaktowa	!	!	!	!	!
.	.	.	.	2d\	no-	2G/	-cem	.	.
=79	=79	=79	=79	=79	=79	=79	=79	=79	=79
!	!	!	!	!	!	!LO:TX:t=P:problem:kreska pseudotaktowa	!	!	!
2r	.	2AA/	-cem	2c\	-bis	1A	.	2r	.
!LO:TX:t=P:problem:kreska pseudotaktowa	!	!LO:TX:t=P:problem:kreska pseudotaktowa	!	!	!	!	!	!	!
*	*ij	*	*ij	*	*	*	*	*	*
2D/	do-	2r	.	2d\	pa-	.	.	1f	do-
!	!	!	!	!LO:TX:a:t=4	!	!	!	!	!
2D/	-na	2r	.	00A	-cem	2r	.	.	.
!LO:TX:t=P:problem:kreska pseudotaktowa	!	!	!	!	!	!LO:TX:t=P:problem:kreska pseudotaktowa	!	!	!
2C/	no-	2E\	do-	.	.	2c\	.	2e\	-na
=80	=80	=80	=80	=80	=80	=80	=80	=80	=80
2D/	-bis	1F	-na	.	.	2B\	.	2d\	no-
!	!	!	!	!	!	!	!	!LO:TX:t=P:problem:kreska pseudotaktowa	!
2.F\	pa-	.	.	.	.	2.A/	.	2c\	-bis
.	.	2D\	no-	.	.	.	.	1d	.
4E\	.	.	.	.	.	4G/	.	.	.
!LO:TX:t=P:problem:kreska pseudotaktowa	!	!	!	!	!	!LO:TX:t=P:problem:kreska pseudotaktowa	!	!	!
2D/	.	2.A\	-bis	.	.	2F/	.	.	.
=81	=81	=81	=81	=81	=81	=81	=81	=81	=81
!	!	!	!	!LO:TX:t=P:problem:kreska pseudotaktowa	!	!	!	!	!
2C/	.	.	.	.	.	2E/	.	2A/	pa-
.	.	4G\	.	.	.	.	.	.	.
!	!	!LO:TX:t=P:problem:kreska pseudotaktowa	!	!	!	!	!	!	!
2D/	.	2F\	.	.	.	2.A/	.	1d	.
1AA	-cem	1E	pa-	2r	.	.	.	.	.
*	*Xij	*	*	*	*	*	*	*	*
.	.	.	.	.	.	4G/	.	.	.
!	!	!	!	!	!	!LO:TX:t=P:problem:kreska pseudotaktowa	!	!	!
.	.	.	.	1A	do-	2E/	.	2c#X\	-cem,
=82	=82	=82	=82	=82	=82	=82	=82	=82	=82
!	!	!LO:TX:t=P:problem:kreska pseudotaktowa	!	!	!	!	!	!	!
2r	.	1D	-cem	.	.	2F/	.	[0dl	.
!LO:TX:t=P:problem:kreska pseudotaktowa	!	!	!	!LO:TX:t=P:problem:kreska pseudotaktowa	!	!	!	!	!
2D/	do-	.	.	2F/	-na	2D/	.	.	.
!	!	!	!	!	!	!LO:TX:a:t=4	!	!	!
2BB/	-na	2r	.	2D/	no-	00D	.	.	.
!	!	!LO:TX:t=P:problem:kreska pseudotaktowa	!	!	!	!	!	!	!
2GG/	no-	2G\	do-	2.d\	-bis	.	.	.	.
=83	=83	=83	=83	=83	=83	=83	=83	=83	=83
1D	-bis	2G\	-na	.	.	.	.	0d_	.
.	.	.	.	4c\	.	.	.	.	.
!	!	!	!	!LO:TX:t=P:problem:kreska pseudotaktowa	!	!	!	!	!
.	.	2F\	no-	2A/	pa-	.	.	.	.
!LO:SIC:v:t=custos GG	!	!	!	!	!	!	!	!	!
!LO:TX:t=P:problem:kreska pseudotaktowa	!	!	!	!	!	!	!	!	!
1GG	pa-	2G\	.	1B	.	.	.	.	.
!	!	!LO:TX:t=P:problem:kreska pseudotaktowa	!	!	!	!	!	!	!
.	.	1B-X	.	.	.	.	.	.	.
!LO:LB:g=original	!	!	!	!	!	!	!	!	!
=84	=84	=84	=84	=84	=84	=84	=84	=84	=84
2GG/	-cem	.	.	2G/	.	.	.	0d_	.
!	!	!	!	!LO:TX:t=P:problem:kreska pseudotaktowa	!	!	!	!	!
2FF/	.	2A\	-bis	2A/	.	.	.	.	.
!	!	!	!	!	!	!LO:TX:t=P:problem:kreska pseudotaktowa	!	!	!
2GG/	.	2G\	pa-	2B-X/	.	1D	.	.	.
!LO:TX:t=P:problem:kreska pseudotaktowa	!	!	!	!	!	!	!	!	!
2.BB/	.	2F#X\	.	2.d\	.	.	.	.	.
=85	=85	=85	=85	=85	=85	=85	=85	=85	=85
.	.	1G	.	.	.	2r	.	0d_	.
4AA/	.	.	.	4c\	.	.	.	.	.
!	!	!	!	!LO:TX:t=P:problem:kreska pseudotaktowa	!	!LO:TX:t=P:problem:kreska pseudotaktowa	!	!	!
2GG/	.	.	.	2B\	.	2D/	do-	.	.
2FF/	.	[1D;l	-cem	2A/	-cem	2F/	-na	.	.
*	*	*	*Xij	*	*	*	*	*	*
2GG/	.	.	.	2G,/	.	2D/	no-	.	.
=86	=86	=86	=86	=86	=86	=86	=86	=86	=86
00DD;	.	0D_	.	2A/	do-	2.F/	-bis	0d_	.
!	!	!	!	!LO:TX:t=P:problem:kreska pseudotaktowa	!	!	!	!	!
.	.	.	.	2D/	-na	.	.	.	.
!	!	!	!	!	!	!LO:SIC:v:t=custos A	!	!	!
!	!	!	!	!	!	!LO:TX:t=P:problem:kreska pseudotaktowa	!	!	!
.	.	.	.	.	.	4G/	.	.	.
.	.	.	.	2F/	no-	1.A	pa-	.	.
!	!	!	!	!LO:SIC:v:t=custos F	!	!	!	!	!
.	.	.	.	2D/	-bis	.	.	.	.
!	!	!	!	!LO:LB:g=original	!	!	!	!	!
=87	=87	=87	=87	=87	=87	=87	=87	=87	=87
.	.	0D]	.	2.F/	pa-	.	.	0d]	.
.	.	.	.	.	.	2F/	.	.	.
.	.	.	.	4G/	.	.	.	.	.
!	!	!	!	!LO:N:vis=0	!	!LO:N:vis=0	!	!	!
.	.	.	.	1A;	-cem	1F;	-cem	.	.
==	==	==	==	==	==	==	==	==	==
*-	*-	*-	*-	*-	*-	*-	*-	*-	*-
!!!system-decoration: [(s1,s2,s3,s4,s5)]
!!!ENC: Andrzej Gręziak
!!!END: 2021-01-19
!!!ENC: Jan Barakat
!!!END: 2022-01-24
!!!RDF**kern: l = terminal long
